icons/svg/seamark/anchorage_small_craft.svg

<?xml version="1.0" encoding="UTF-8" standalone="no"?>
<svg
   xmlns:dc="http://purl.org/dc/elements/1.1/"
   xmlns:cc="http://creativecommons.org/ns#"
   xmlns:rdf="http://www.w3.org/1999/02/22-rdf-syntax-ns#"
   xmlns:svg="http://www.w3.org/2000/svg"
   xmlns="http://www.w3.org/2000/svg"
   xmlns:sodipodi="http://sodipodi.sourceforge.net/DTD/sodipodi-0.dtd"
   xmlns:inkscape="http://www.inkscape.org/namespaces/inkscape"
   width="580"
   height="580"
   id="svg2"
   version="1.1"
   inkscape:version="0.48.4 r9939"
   sodipodi:docname="anchorage_small_craft.svg">
  <defs
     id="defs13">
    <inkscape:path-effect
       effect="gears"
       id="path-effect3774"
       is_visible="true"
       teeth="6"
       phi="-1.2" />
    <inkscape:path-effect
       effect="bend_path"
       id="path-effect3772"
       is_visible="false"
       bendpath="m 95.790098,316.51174 c 144.429032,-206.42506 223.313032,-11.7428 339.548092,0"
       prop_scale="1.19"
       scale_y_rel="false"
       vertical="false"
       bendpath-nodetypes="cc" />
  </defs>
  <sodipodi:namedview
     pagecolor="#ffffff"
     bordercolor="#666666"
     borderopacity="1"
     objecttolerance="10"
     gridtolerance="10"
     guidetolerance="10"
     inkscape:pageopacity="0"
     inkscape:pageshadow="2"
     inkscape:window-width="1920"
     inkscape:window-height="1004"
     id="namedview11"
     showgrid="false"
     inkscape:zoom="0.5754386"
     inkscape:cx="358.10283"
     inkscape:cy="562.6421"
     inkscape:window-x="1680"
     inkscape:window-y="0"
     inkscape:window-maximized="1"
     inkscape:current-layer="svg2" />
  <metadata
     id="metadata2975">image/svg+xmlen<rdf:RDF>
  <cc:Work
     rdf:about="">
    <dc:format>image/svg+xml</dc:format>
    <dc:type
       rdf:resource="http://purl.org/dc/dcmitype/StillImage" />
    <dc:title />
  </cc:Work>
</rdf:RDF>
</metadata>
  <path
     style="font-size:medium;font-style:normal;font-variant:normal;font-weight:normal;font-stretch:normal;text-indent:0;text-align:start;text-decoration:none;line-height:normal;letter-spacing:normal;word-spacing:normal;text-transform:none;direction:ltr;block-progression:tb;writing-mode:lr-tb;text-anchor:start;baseline-shift:baseline;opacity:1;color:#000000;fill:#930093;fill-opacity:1;fill-rule:nonzero;stroke:none;stroke-width:1;marker:none;visibility:visible;display:inline;overflow:visible;enable-background:accumulate;font-family:Sans;-inkscape-font-specification:Sans"
     d="m 273.56959,161.17933 c -24.56937,0 -44.7213,20.15191 -44.7213,44.72134 0,16.44346 9.0327,30.89819 22.37024,38.66911 l 0,28.42248 -33.55537,0 0,22.37024 33.55537,0 0,100.72357 c -27.11289,-1.91549 -57.0352,-37.2206 -71.2094,-70.19431 11.23833,0.61148 22.27448,-0.24899 22.27448,-0.24899 0,0 -21.63465,-32.63065 -52.03763,-41.00573 -18.98648,16.40351 -22.0255,62.89717 -22.0255,62.89717 0,0 7.1476,-3.53856 15.8009,-10.13174 14.60944,41.82094 52.67899,78.05262 98.71254,88.15945 19.7692,4.3385 30.83567,26.33484 30.83567,26.33484 0,0 11.08571,-21.99634 30.85488,-26.33483 45.8014,-10.05585 83.71192,-45.9741 98.48271,-87.52741 8.86009,6.75187 16.03076,9.4997 16.03076,9.4997 0,-13.41802 -1.51915,-40.63402 -20.953,-63.43345 -30.40288,8.37508 -53.12928,41.54201 -53.12928,41.54201 0,0 11.03987,0.85932 22.27445,0.24898 -14.17624,32.96666 -44.0806,68.27906 -71.19027,70.19431 l 0,-100.72356 33.53624,0 0,-22.37024 -33.53624,0 0,-28.42248 c 13.32966,-7.77294 22.37024,-22.23155 22.37024,-38.66911 0,-24.56944 -20.17104,-44.72135 -44.74049,-44.72135 z m 0,22.3511 c 12.48345,0 22.37025,9.88686 22.37025,22.37024 0,12.48338 -9.8868,22.37024 -22.37025,22.37024 -12.48333,0 -22.35106,-9.88686 -22.35106,-22.37024 0,-12.48338 9.86773,-22.37024 22.35106,-22.37024 z"
     id="circle3"
     inkscape:connector-curvature="0" />
  <path
     style="opacity:1;color:#000000;fill:#930093;fill-opacity:1;fill-rule:nonzero;stroke:none;stroke-width:1;marker:none;visibility:visible;display:inline;overflow:visible;enable-background:accumulate"
     d="m 426.23015,120.74952 c -13.24223,34.88426 -14.08181,73.11956 -8.26529,113.13504 9.72888,-24.34705 32.50468,-20.6268 52.29505,-10.99968 -4.35508,-3.58012 -35.38439,-36.49023 -44.02976,-102.13536 z m -2.144,5.74841 c -97.53281,10.1418 -64.82265,96.59132 -52.97865,100.98569 -7.73597,-21.95081 16.71579,-29.75821 38.561,-7.61277 0,0 -18.97374,-67.70343 14.41765,-93.37292 z m -79.57672,99.40099 c 12.78903,35.81655 51.86705,32.19113 62.39361,32.19113 23.35266,0 62.42459,-5.90976 72.58541,-17.05882 L 344.50943,225.89892 z"
     id="path7"
     inkscape:connector-curvature="0" />
</svg>

<svg width="580" height="580" viewBox="0 0 580 580" fill="none" xmlns="http://www.w3.org/2000/svg">
<path d="M273.57 161.179C249 161.179 228.848 181.331 228.848 205.901C228.848 222.344 237.881 236.799 251.219 244.57V272.992H217.663V295.362H251.219V396.086C224.106 394.171 194.183 358.865 180.009 325.892C191.247 326.503 202.284 325.643 202.284 325.643C202.284 325.643 180.649 293.012 150.246 284.637C131.259 301.041 128.22 347.534 128.22 347.534C128.22 347.534 135.368 343.996 144.021 337.402C158.631 379.223 196.7 415.455 242.734 425.562C262.503 429.9 273.57 451.897 273.57 451.897C273.57 451.897 284.655 429.9 304.424 425.562C350.226 415.506 388.136 379.588 402.907 338.035C411.767 344.786 418.938 347.534 418.938 347.534C418.938 334.116 417.419 306.9 397.985 284.101C367.582 292.476 344.856 325.643 344.856 325.643C344.856 325.643 355.896 326.502 367.13 325.892C352.954 358.858 323.05 394.171 295.94 396.086V295.363H329.476V272.992H295.94V244.57C309.269 236.797 318.31 222.338 318.31 205.901C318.31 181.331 298.139 161.179 273.57 161.179V161.179ZM273.57 183.53C286.053 183.53 295.94 193.417 295.94 205.901C295.94 218.384 286.053 228.271 273.57 228.271C261.086 228.271 251.219 218.384 251.219 205.901C251.219 193.417 261.086 183.53 273.57 183.53Z" fill="#930093"/>
<path d="M426.23 120.75C412.988 155.634 412.148 193.869 417.965 233.885C427.694 209.538 450.47 213.258 470.26 222.885C465.905 219.305 434.876 186.395 426.23 120.75ZM424.086 126.498C326.553 136.64 359.263 223.089 371.107 227.484C363.372 205.533 387.823 197.725 409.668 219.871C409.668 219.871 390.695 152.167 424.086 126.498V126.498ZM344.509 225.899C357.298 261.715 396.376 258.09 406.903 258.09C430.256 258.09 469.328 252.18 479.488 241.031L344.509 225.899V225.899Z" fill="#930093"/>
</svg>
